img/ruda-logo-white.svg

<svg width="160" height="88" viewBox="0 0 160 88" fill="none" xmlns="http://www.w3.org/2000/svg">
<path d="M31.584 49.4257V40.1619H34.0418V41.193C34.3114 40.8023 34.6732 40.4844 35.0951 40.2673C35.5316 40.0517 36.0128 39.9421 36.4996 39.9476C36.8476 39.9358 37.1938 40.0025 37.5126 40.1426V42.2943C37.3213 42.2115 37.1218 42.1491 36.9174 42.1081C36.704 42.0668 36.487 42.0462 36.2696 42.0466C35.8129 42.0408 35.3637 42.1625 34.9722 42.3979C34.5761 42.6468 34.2546 42.9982 34.0418 43.4149V49.4257H31.584Z" fill="white"/>
<path d="M42.3895 49.6038C41.7282 49.6165 41.0754 49.4541 40.497 49.133C39.952 48.8249 39.5052 48.3688 39.2084 47.8174C38.8941 47.2296 38.7352 46.5711 38.7467 45.9046V40.1626H41.1641V45.5498C41.1519 45.8102 41.1923 46.0703 41.2827 46.3148C41.3732 46.5592 41.512 46.7829 41.6908 46.9725C41.8767 47.1514 42.0971 47.2904 42.3387 47.381C42.5802 47.4716 42.8376 47.5119 43.0952 47.4995C43.4757 47.5081 43.8527 47.425 44.1943 47.2571C44.5119 47.0969 44.7883 46.8655 45.0018 46.5808V40.1626H47.4368V49.4263H45.0018V48.6799C44.2759 49.3016 43.3447 49.631 42.3895 49.6038Z" fill="white"/>
<path d="M53.6235 49.5508C52.7879 49.5597 51.9661 49.3378 51.2482 48.9097C50.5461 48.4915 49.9623 47.9009 49.5524 47.1936C49.1273 46.4631 48.9088 45.6307 48.9204 44.7855C48.9125 43.9528 49.1256 43.1329 49.538 42.4096C49.9504 41.6862 50.5472 41.0853 51.2676 40.6682C52.0074 40.2435 52.8479 40.0257 53.7008 40.0376C54.1473 40.0383 54.5913 40.1033 55.0193 40.2309C55.4416 40.3567 55.845 40.5393 56.2183 40.7736V36.9778L58.6533 36.5703V49.4261H56.2534V48.6621C55.5046 49.2511 54.5761 49.5649 53.6235 49.5508ZM54.0151 47.4694C54.4358 47.4738 54.8533 47.3956 55.244 47.2393C55.613 47.0918 55.9464 46.8672 56.2218 46.5806V42.971C55.9426 42.6938 55.6082 42.4784 55.2405 42.3387C54.8486 42.1871 54.4316 42.1114 54.0115 42.1155C53.5294 42.1102 53.0542 42.2314 52.6334 42.4668C52.2314 42.6922 51.8968 43.0209 51.6643 43.4189C51.4301 43.8376 51.308 44.3097 51.3098 44.7895C51.3117 45.2692 51.4374 45.7404 51.6749 46.1573C51.9141 46.5544 52.2507 46.8839 52.6527 47.1146C53.0665 47.3536 53.5373 47.4762 54.0151 47.4694Z" fill="white"/>
<path d="M63.5052 49.5857C62.9043 49.5966 62.3085 49.4723 61.7619 49.2221C61.2807 49.0017 60.8691 48.6536 60.5716 48.2156C60.2835 47.7783 60.1348 47.2638 60.145 46.7401C60.1271 46.3396 60.2086 45.9407 60.3823 45.5794C60.556 45.218 60.8165 44.9053 61.1404 44.6692C61.8041 44.1774 62.7281 43.9315 63.9125 43.9315C64.6888 43.9257 65.4605 44.0517 66.1948 44.3039V43.6294C66.1948 43.1024 66.0297 42.6932 65.6979 42.4192C65.3661 42.1452 64.8798 42.0099 64.2408 42.0099C63.8136 42.0171 63.3893 42.0803 62.9785 42.1978C62.4428 42.3491 61.9197 42.5423 61.4143 42.7757L60.5365 40.9613C61.2174 40.6606 61.9221 40.4168 62.6432 40.2323C63.2935 40.0681 63.9615 39.9844 64.6323 39.9829C65.8998 39.9829 66.8777 40.2827 67.5659 40.8822C68.254 41.4818 68.5976 42.3261 68.5964 43.4151V49.4259H66.1877V48.7671C65.8182 49.0461 65.4021 49.2573 64.9588 49.3907C64.4862 49.5251 63.9966 49.5907 63.5052 49.5857ZM62.4519 46.6875C62.4488 46.8563 62.4897 47.023 62.5707 47.1712C62.6517 47.3193 62.7698 47.4438 62.9136 47.5323C63.2831 47.756 63.711 47.8643 64.1425 47.8432C64.5177 47.8467 64.8916 47.7989 65.2538 47.7009C65.5904 47.606 65.9065 47.4494 66.186 47.239V45.8865C65.8906 45.7571 65.5805 45.6645 65.2626 45.6107C64.9217 45.5564 64.5771 45.5299 64.232 45.5317C63.7768 45.506 63.3237 45.6108 62.9259 45.8338C62.7784 45.9212 62.6571 46.0464 62.5743 46.1965C62.4916 46.3466 62.4505 46.5161 62.4554 46.6875H62.4519Z" fill="white"/>
<path d="M78.681 53.2289C77.9816 53.2315 77.2839 53.1572 76.6006 53.0076C75.9731 52.8718 75.3647 52.6595 74.7889 52.3752L75.6491 50.4923C76.133 50.7278 76.6386 50.9155 77.1589 51.0526C77.6406 51.1771 78.1361 51.2402 78.6336 51.2406C79.344 51.2406 79.8865 51.0831 80.261 50.7681C80.6332 50.4537 80.8211 49.9881 80.8211 49.3717V48.6427C80.0837 49.1818 79.1922 49.4689 78.279 49.4612C77.4544 49.4677 76.6429 49.2545 75.9278 48.8437C75.2127 48.4329 74.6197 47.8391 74.2095 47.1233C73.791 46.3963 73.5758 45.5699 73.5863 44.731C73.5758 43.8942 73.7943 43.0705 74.2183 42.3492C74.6311 41.6445 75.2229 41.0615 75.9335 40.6594C76.6757 40.2397 77.5161 40.0251 78.3685 40.0376C78.8056 40.0405 79.2401 40.1055 79.6589 40.2308C80.0751 40.351 80.4705 40.5341 80.8316 40.7736V40.1623H83.249V49.4085C83.249 50.6299 82.8546 51.5719 82.0658 52.2347C81.2769 52.8975 80.1487 53.2289 78.681 53.2289ZM78.6634 47.4149C79.0767 47.4197 79.487 47.344 79.8713 47.1918C80.227 47.0515 80.5485 46.8365 80.814 46.5613V42.9534C80.5427 42.6849 80.2187 42.4756 79.8625 42.3387C79.4825 42.1937 79.0789 42.121 78.6722 42.1243C78.1928 42.1183 77.7203 42.2395 77.3029 42.4756C76.9066 42.701 76.5761 43.0262 76.3443 43.4189C76.1073 43.8194 75.9858 44.2779 75.9932 44.7433C75.9872 45.223 76.1083 45.6957 76.3443 46.1133C76.5727 46.5134 76.9044 46.8446 77.3046 47.0724C77.719 47.3057 78.188 47.4246 78.6634 47.4166V47.4149Z" fill="white"/>
<path d="M88.1011 49.5865C87.5007 49.5973 86.9055 49.4731 86.3595 49.2229C85.8783 49.0025 85.4667 48.6544 85.1692 48.2164C84.8811 47.7791 84.7324 47.2646 84.7427 46.7409C84.7247 46.3404 84.8062 45.9415 84.9799 45.5802C85.1536 45.2188 85.4141 44.9061 85.738 44.67C86.4017 44.1782 87.3257 43.9323 88.5101 43.9323C89.2864 43.9265 90.0581 44.0525 90.7924 44.3047V43.6302C90.7924 43.1032 90.6256 42.694 90.2938 42.42C89.962 42.1459 89.4774 42.0107 88.8366 42.0107C88.4095 42.018 87.9851 42.0812 87.5744 42.1986C87.0391 42.3496 86.5167 42.5429 86.0119 42.7765L85.1342 40.962C85.814 40.6612 86.5174 40.4168 87.2373 40.2314C87.8883 40.0672 88.5568 39.9835 89.2282 39.9819C90.4957 39.9819 91.473 40.2817 92.16 40.8813C92.8468 41.4808 93.191 42.3251 93.1922 43.4141V49.4266H90.7854V48.7679C90.4159 49.0471 89.9999 49.2582 89.5564 49.3915C89.0832 49.5263 88.5931 49.592 88.1011 49.5865ZM87.0477 46.6883C87.0446 46.8571 87.0856 47.0238 87.1666 47.172C87.2475 47.3201 87.3658 47.4446 87.5094 47.5331C87.8788 47.7573 88.3069 47.8656 88.7383 47.844C89.113 47.8476 89.4863 47.7997 89.8479 47.7017C90.1853 47.6074 90.5021 47.4507 90.7818 47.2398V45.8872C90.4859 45.7576 90.1752 45.665 89.8567 45.6115C89.5158 45.5572 89.1712 45.5307 88.8262 45.5324C88.3709 45.5073 87.9179 45.6121 87.52 45.8346C87.3747 45.9234 87.2557 46.0492 87.1752 46.1993C87.0947 46.3493 87.0555 46.518 87.0618 46.6883H87.0477Z" fill="white"/>
<path d="M95.0312 49.4264V40.1626H97.4662V40.8652C98.017 40.397 98.6909 40.0981 99.4072 40.0046C100.124 39.9111 100.852 40.027 101.504 40.3383C101.974 40.5765 102.377 40.9278 102.677 41.3606C103.044 40.9197 103.507 40.5673 104.029 40.3295C104.572 40.0894 105.159 39.9696 105.753 39.9782C106.391 39.9659 107.021 40.1293 107.573 40.4507C108.099 40.7613 108.53 41.2102 108.818 41.7487C109.129 42.3368 109.285 42.9946 109.271 43.6598V49.4211H106.833V44.0392C106.833 43.4332 106.676 42.9572 106.362 42.6077C106.202 42.4321 106.005 42.2939 105.785 42.2029C105.565 42.1118 105.328 42.0701 105.091 42.0807C104.745 42.0774 104.402 42.1537 104.09 42.3038C103.775 42.4648 103.508 42.7074 103.318 43.0064C103.328 43.1136 103.341 43.2207 103.353 43.3261C103.365 43.4386 103.371 43.5518 103.37 43.6651V49.4264H100.93V44.0392C100.93 43.4332 100.774 42.9572 100.46 42.6077C100.299 42.4321 100.102 42.2939 99.8829 42.2029C99.6629 42.1118 99.426 42.0701 99.1884 42.0807C98.8478 42.0748 98.5103 42.1475 98.2018 42.2933C97.9061 42.4413 97.6522 42.6618 97.4649 42.9344V49.4264H95.0312Z" fill="white"/>
<path d="M115.667 49.604C114.807 49.6143 113.958 49.4011 113.204 48.9851C112.45 48.5692 111.817 47.9648 111.366 47.231C110.923 46.4979 110.695 45.6549 110.708 44.7983C110.697 43.9593 110.909 43.1325 111.32 42.4017C111.732 41.6709 112.33 41.0621 113.053 40.6371C113.78 40.2095 114.61 39.9884 115.453 39.9978C116.29 39.983 117.114 40.2079 117.827 40.6459C118.519 41.0789 119.084 41.6896 119.461 42.4147C119.868 43.2053 120.073 44.0847 120.056 44.9739V45.615H113.195C113.299 45.9798 113.479 46.3186 113.722 46.6092C113.968 46.9035 114.278 47.1378 114.628 47.2942C114.991 47.4559 115.385 47.538 115.783 47.5349C116.17 47.5374 116.555 47.4738 116.921 47.3469C117.259 47.2346 117.569 47.05 117.829 46.8059L119.428 48.2638C118.38 49.1593 117.038 49.6343 115.66 49.597L115.667 49.604ZM113.16 43.8779H117.676C117.587 43.5259 117.426 43.1962 117.203 42.91C116.992 42.6374 116.721 42.4153 116.414 42.2601C116.104 42.1069 115.763 42.0282 115.418 42.03C115.062 42.0249 114.71 42.1005 114.387 42.2514C114.081 42.3982 113.815 42.6176 113.613 42.8907C113.399 43.1867 113.245 43.5221 113.16 43.8779Z" fill="white"/>
<path d="M125.086 49.6037C124.295 49.6095 123.508 49.4989 122.749 49.2753C122.067 49.0792 121.426 48.7627 120.855 48.3408L122.065 46.7055C122.544 47.0325 123.06 47.3014 123.602 47.5065C124.072 47.6796 124.568 47.7694 125.068 47.7717C125.52 47.7922 125.97 47.6979 126.375 47.4977C126.699 47.3127 126.862 47.0726 126.863 46.7775C126.867 46.6666 126.844 46.5562 126.796 46.4561C126.748 46.356 126.676 46.2691 126.587 46.2032C126.325 46.0303 126.023 45.9259 125.71 45.8992L123.929 45.6393C123.016 45.4964 122.32 45.1966 121.84 44.74C121.6 44.5071 121.411 44.226 121.288 43.9151C121.163 43.6042 121.106 43.2705 121.12 42.9361C121.106 42.3773 121.272 41.8289 121.592 41.371C121.933 40.9111 122.398 40.5592 122.934 40.3575C123.58 40.1101 124.268 39.9907 124.96 40.0062C125.636 40.0051 126.309 40.1003 126.959 40.289C127.61 40.4826 128.225 40.7791 128.781 41.1673L127.607 42.7481C127.152 42.4523 126.659 42.2189 126.141 42.0543C125.69 41.9141 125.22 41.8419 124.747 41.84C124.38 41.8249 124.016 41.9112 123.694 42.0894C123.572 42.1512 123.469 42.2453 123.397 42.3615C123.325 42.4776 123.286 42.6114 123.285 42.7481C123.283 42.8611 123.308 42.9729 123.359 43.0737C123.41 43.1745 123.486 43.2611 123.578 43.326C123.869 43.5055 124.198 43.6155 124.538 43.6474L126.315 43.8968C127.24 44.0268 127.942 44.3231 128.422 44.7857C128.66 45.0104 128.849 45.2831 128.974 45.5858C129.099 45.8886 129.159 46.2145 129.15 46.5421C129.162 47.114 128.976 47.6723 128.624 48.123C128.24 48.6009 127.742 48.9738 127.175 49.2067C126.514 49.4828 125.802 49.618 125.086 49.6037Z" fill="white"/>
<path d="M67.2664 35.9807L65.5458 34.2593L63.1016 36.7048L64.8221 38.4263L67.2664 35.9807Z" fill="white"/>
</svg>

<svg xmlns="http://www.w3.org/2000/svg" width="160" height="88" fill="none"><path fill="#fff" d="M31.584 49.426v-9.264h2.458v1.031c.27-.39.631-.709 1.053-.926a3.093 3.093 0 0 1 1.405-.32c.348-.011.694.055 1.013.196v2.151a2.968 2.968 0 0 0-.596-.186 3.377 3.377 0 0 0-.647-.061 2.457 2.457 0 0 0-1.298.35c-.396.25-.717.601-.93 1.018v6.01h-2.458ZM42.39 49.604a3.75 3.75 0 0 1-1.893-.471 3.318 3.318 0 0 1-1.289-1.316 3.914 3.914 0 0 1-.461-1.912v-5.742h2.417v5.387a1.944 1.944 0 0 0 .527 1.422 1.893 1.893 0 0 0 1.404.527 2.37 2.37 0 0 0 1.1-.242 2.31 2.31 0 0 0 .807-.676v-6.418h2.435v9.263h-2.435v-.746a3.848 3.848 0 0 1-2.613.924ZM53.623 49.55a4.543 4.543 0 0 1-2.375-.64 4.797 4.797 0 0 1-1.696-1.716 4.66 4.66 0 0 1-.632-2.409 4.707 4.707 0 0 1 2.348-4.117 4.754 4.754 0 0 1 2.433-.63c.446 0 .89.065 1.318.193.423.126.826.308 1.2.543v-3.796l2.434-.408v12.856h-2.4v-.764a4.154 4.154 0 0 1-2.63.889Zm.392-2.08c.42.004.838-.074 1.229-.23.369-.148.702-.373.978-.66v-3.609a2.809 2.809 0 0 0-.982-.632 3.317 3.317 0 0 0-1.229-.224 2.76 2.76 0 0 0-1.378.352 2.589 2.589 0 0 0-.969.952 2.786 2.786 0 0 0 .01 2.738c.24.397.577.727.979.958.413.239.884.361 1.362.354ZM63.505 49.586c-.6.01-1.197-.114-1.743-.364a2.898 2.898 0 0 1-1.19-1.006 2.59 2.59 0 0 1-.427-1.476 2.429 2.429 0 0 1 .995-2.07c.664-.493 1.588-.739 2.773-.739a6.868 6.868 0 0 1 2.282.373v-.675c0-.527-.165-.936-.497-1.21-.332-.274-.818-.41-1.457-.41a4.89 4.89 0 0 0-1.263.189c-.535.151-1.058.344-1.564.578l-.878-1.815c.681-.3 1.386-.544 2.107-.729a8.2 8.2 0 0 1 1.99-.25c1.267 0 2.245.3 2.933.9.688.6 1.032 1.444 1.03 2.533v6.01h-2.408v-.658c-.37.28-.786.49-1.23.624-.472.134-.961.2-1.453.195Zm-1.053-2.898a.971.971 0 0 0 .462.844c.37.224.797.332 1.228.311.376.004.75-.044 1.112-.142.336-.095.652-.252.932-.462v-1.352a3.94 3.94 0 0 0-.923-.276 6.34 6.34 0 0 0-1.031-.08 2.395 2.395 0 0 0-1.306.303.961.961 0 0 0-.47.853h-.004ZM78.681 53.229a9.562 9.562 0 0 1-2.08-.221 7.835 7.835 0 0 1-1.812-.633l.86-1.883c.484.236.99.424 1.51.56.482.125.977.188 1.475.189.71 0 1.252-.158 1.627-.473.372-.314.56-.78.56-1.396v-.73a4.247 4.247 0 0 1-2.542.82 4.647 4.647 0 0 1-4.07-2.339 4.678 4.678 0 0 1-.623-2.392c-.01-.837.208-1.66.632-2.382a4.631 4.631 0 0 1 1.715-1.69 4.804 4.804 0 0 1 2.435-.621c.438.003.872.068 1.29.193.417.12.813.303 1.174.543v-.612h2.417v9.246c0 1.222-.394 2.164-1.183 2.827-.79.663-1.917.994-3.385.994Zm-.018-5.814a3.18 3.18 0 0 0 1.208-.223c.356-.14.678-.355.943-.63v-3.609a2.76 2.76 0 0 0-.951-.614 3.264 3.264 0 0 0-1.19-.215 2.712 2.712 0 0 0-1.37.352c-.396.225-.727.55-.959.943-.237.4-.358.859-.35 1.324-.007.48.114.953.35 1.37.229.4.56.732.96.96.415.233.884.352 1.36.344v-.002ZM88.101 49.587c-.6.01-1.195-.114-1.742-.364a2.898 2.898 0 0 1-1.19-1.007 2.59 2.59 0 0 1-.426-1.475 2.428 2.428 0 0 1 .995-2.071c.664-.492 1.588-.738 2.772-.738a6.868 6.868 0 0 1 2.282.373v-.675c0-.527-.166-.936-.498-1.21-.332-.274-.817-.41-1.457-.41-.428.008-.852.071-1.263.189-.535.15-1.057.344-1.562.578l-.878-1.815c.68-.3 1.383-.545 2.103-.73a8.22 8.22 0 0 1 1.991-.25c1.268 0 2.245.3 2.932.9.687.599 1.031 1.443 1.032 2.532v6.013h-2.407v-.66a3.9 3.9 0 0 1-1.229.624c-.473.135-.963.201-1.455.196Zm-1.053-2.899a.971.971 0 0 0 .461.845c.37.224.798.333 1.23.311.374.004.747-.044 1.109-.142.337-.095.654-.251.934-.462v-1.353a3.928 3.928 0 0 0-.925-.276 6.352 6.352 0 0 0-1.03-.079 2.405 2.405 0 0 0-1.307.303.958.958 0 0 0-.458.853h-.014ZM95.031 49.426v-9.263h2.435v.702a3.745 3.745 0 0 1 4.038-.527c.47.239.873.59 1.173 1.023a3.82 3.82 0 0 1 1.352-1.031c.543-.24 1.13-.36 1.724-.352a3.485 3.485 0 0 1 1.82.473c.526.31.957.76 1.245 1.298.311.588.467 1.246.453 1.91v5.762h-2.438V44.04c0-.606-.157-1.082-.471-1.431a1.616 1.616 0 0 0-1.271-.527 2.26 2.26 0 0 0-1.001.223 1.986 1.986 0 0 0-.772.702c.01.108.023.215.035.32.012.113.018.226.017.34v5.76h-2.44V44.04c0-.606-.156-1.082-.47-1.431a1.633 1.633 0 0 0-1.272-.527 2.219 2.219 0 0 0-.986.212c-.296.148-.55.369-.737.641v6.492H95.03ZM115.667 49.604a4.976 4.976 0 0 1-4.301-2.373 4.57 4.57 0 0 1-.658-2.433 4.763 4.763 0 0 1 2.345-4.16 4.633 4.633 0 0 1 2.4-.64 4.388 4.388 0 0 1 2.374.648 4.58 4.58 0 0 1 1.634 1.769c.407.79.612 1.67.595 2.559v.641h-6.861c.104.365.284.704.527.994.246.294.556.529.906.685.363.162.757.244 1.155.24.387.003.772-.06 1.138-.187a2.46 2.46 0 0 0 .908-.541l1.599 1.458a5.567 5.567 0 0 1-3.768 1.333l.007.007Zm-2.507-5.726h4.516a2.62 2.62 0 0 0-.473-.968 2.222 2.222 0 0 0-1.785-.88 2.354 2.354 0 0 0-1.031.221 2.084 2.084 0 0 0-.774.64 2.792 2.792 0 0 0-.453.987ZM125.086 49.604a8.059 8.059 0 0 1-2.337-.329 5.957 5.957 0 0 1-1.894-.934l1.21-1.636c.479.328.995.596 1.537.802.47.173.966.262 1.466.265.452.02.902-.074 1.307-.274.324-.185.487-.425.488-.72a.686.686 0 0 0-.276-.575 1.884 1.884 0 0 0-.877-.304l-1.781-.26c-.913-.143-1.609-.442-2.089-.899a2.362 2.362 0 0 1-.552-.825 2.36 2.36 0 0 1-.168-.979 2.618 2.618 0 0 1 .472-1.565c.341-.46.806-.812 1.342-1.014a5.33 5.33 0 0 1 2.026-.35 7.128 7.128 0 0 1 1.999.282c.651.194 1.266.49 1.822.878l-1.174 1.581a6.052 6.052 0 0 0-1.466-.694 4.761 4.761 0 0 0-1.394-.214 2.004 2.004 0 0 0-1.053.25.746.746 0 0 0-.335.984c.051.1.127.187.219.252.291.18.62.29.96.321l1.777.25c.925.13 1.627.426 2.107.889a2.32 2.32 0 0 1 .728 1.756 2.484 2.484 0 0 1-.526 1.581c-.384.478-.882.85-1.449 1.084a5.155 5.155 0 0 1-2.089.397ZM67.266 35.98l-1.72-1.72-2.444 2.445 1.72 1.721 2.444-2.445Z"/></svg>
